assets/svgs/misc-grey/MiscGrey64.svg

<svg width="44" height="44" viewBox="0 0 44 44" fill="none" xmlns="http://www.w3.org/2000/svg">
<path fill-rule="evenodd" clip-rule="evenodd" d="M40.115 40.479H3.99902C3.72802 40.479 3.49902 40.251 3.49902 39.979V19.347L21.277 30.16C21.517 30.306 21.787 30.379 22.057 30.379C22.332 30.379 22.606 30.304 22.849 30.152L40.615 19.107V39.979C40.615 40.251 40.386 40.479 40.115 40.479ZM20.613 4.493C21.636 3.745 22.159 3.734 23.149 4.435L39.604 16.203L22.048 27.118L4.66002 16.543C8.81502 13.391 19.032 5.646 20.613 4.493ZM42.987 14.935L24.888 1.99C22.832 0.535004 20.912 0.561004 18.844 2.069C16.839 3.533 1.73402 14.996 1.09202 15.483C1.07202 15.498 1.05802 15.519 1.03902 15.534C0.979023 15.584 0.922023 15.637 0.870023 15.696C0.842023 15.729 0.819023 15.764 0.794023 15.798C0.769023 15.832 0.739023 15.862 0.717023 15.899C0.704023 15.92 0.697023 15.942 0.686023 15.964C0.665023 16.002 0.647023 16.041 0.630023 16.082C0.603023 16.145 0.580023 16.207 0.562023 16.271C0.551023 16.31 0.541023 16.348 0.533023 16.387C0.518023 16.459 0.511023 16.531 0.507023 16.604C0.506023 16.63 0.499023 16.653 0.499023 16.679V39.979C0.499023 41.909 2.06902 43.479 3.99902 43.479H40.115C42.044 43.479 43.615 41.909 43.615 39.979V16.154C43.615 15.67 43.381 15.216 42.987 14.935Z" fill="#1A1919"/>
</svg>

<svg xmlns="http://www.w3.org/2000/svg" fill="none" viewBox="0 0 44 44"><path fill="#1A1919" fill-rule="evenodd" d="M40.115 40.479H3.999a.506.506 0 01-.5-.5V19.347L21.277 30.16a1.5 1.5 0 001.572-.008l17.766-11.045v20.872c0 .272-.229.5-.5.5zM20.613 4.493c1.023-.748 1.546-.759 2.536-.058l16.455 11.768-17.556 10.915L4.66 16.543c4.155-3.152 14.372-10.897 15.953-12.05zm22.374 10.442L24.888 1.99c-2.056-1.455-3.976-1.429-6.044.079-2.005 1.464-17.11 12.927-17.752 13.414-.02.015-.034.036-.053.051a1.52 1.52 0 00-.169.162c-.028.033-.051.068-.076.102-.025.034-.055.064-.077.101-.013.021-.02.043-.031.065a1.529 1.529 0 00-.179.64c-.001.026-.008.049-.008.075v23.3c0 1.93 1.57 3.5 3.5 3.5h36.116c1.929 0 3.5-1.57 3.5-3.5V16.154c0-.484-.234-.938-.628-1.219z" clip-rule="evenodd"/></svg>
